X:1
T:Bryce Canyon, 76.76 D
T:Bryce Canyon, 76.76 D
T:Benjamin Carl Unseld, 1894
T:Public Domain Courtesy of the Cyber Hymnal™
C:Benjamin Carl Unseld, 1894
Z:Public Domain
Z:Courtesy of the Cyber Hymnal™
%%score ( 1 2 ) ( 3 4 )
L:1/8
Q:1/4=103
M:6/8
K:Eb
V:1 treble 
V:2 treble 
V:3 bass 
V:4 bass 
V:1
 [EB] | [EB]2 [Ec] (BG)E | [DF]3 E2 [EG] | F2 [EF] [DB]2 [FA] | [EG]3- [EG]2 [EB] | %5
 [EB]2 [Ec] (BG)E | [DF]3 E2 E | [EG]2 [EG] (FG)[DF] | E3- E2 [EG] | [EA]2 [EA] [Ac]2 [Ac] | %10
 [GB]3 [Ge]2 [Ge] | [Fd]2 [Fd] (ed)[Ec] | [DB]3- [DB]2 [GB] | [Ge]2 [GB] ([GB][FA])[EG] | %14
 (A2 B) [Ec]2 [Ec] | [EB]2 [EG] [DG]2 [DF] | E3- E2 |] %17
V:2
 x | x3 E2 E | x3 E2 x | F2 x4 | x6 | x3 E2 E | x3 E2 E | x3 D2 x | E3- E2 x | x6 | x6 | x3 F2 x | %12
 x6 | x6 | E3 x3 | x6 | E3- E2 |] %17
V:3
 [E,G,] | [E,G,]2 [E,A,] (G,B,)[E,G,] | [B,,A,]3 [E,G,]2 [E,B,] | [D,B,]2 [C,=A,] [B,,B,]2 [D,B,] | %4
 [E,B,]3- [E,B,]2 [E,G,] | [E,G,]2 [E,A,] (G,B,)[E,G,] | [B,,A,]3 [E,G,]2 [C,=A,] | %7
 [B,,B,]2 [B,,B,] (A,B,)[B,,A,] | [E,G,]3- [E,G,]2 [E,B,] | [A,C]2 [A,C] [A,E]2 [A,E] | %10
 [E,E]3 [E,B,]2 [E,B,] | [F,B,]2 [F,B,] (CB,)[F,=A,] | [B,,B,]3- [B,,B,]2 [E,B,] | %13
 [E,B,]2 [E,B,] (B,C)[E,_D] | (C2 B,) A,2 [A,,A,] | [B,,G,]2 [B,,B,] [B,,B,]2 [B,,A,] | %16
 [E,G,]3- [E,G,]2 |] %17
V:4
 x | x3 E,2 x | x6 | x6 | x6 | x3 E,2 x | x6 | x3 B,,2 x | x6 | x6 | x6 | x3 F,2 x | x6 | %13
 x3 E,2 x | A,3 A,2 x | x6 | x5 |] %17

